X:52
T:Kentucky Mandolin
C:Bill Monroe
S:Jim Coon to CoMandoList TOW
M:4/4
L:1/8
Q:1/8=480
K:Bb
|DGBd gfdc|B4  (3DDD  (3DDD|(3_GGG  (3GGG  (3=GGG G2|[d6G6]D2 !
|:"Gm"FGGG G2Bc|c2cd cBG2|FGGG G2GA|BAB"D7"c d2D2|!
"Gm"FGGG G2Bc|c2cd cBG2|_d=ddd d2_d=d|"D7"B[GG,]\
[GG,][GG,] "Gm"[G2G,2]G2:|!
f"Gm"gg2 g2fg|g2gb gfd2|"F"=effg fdc2|agfa gfd2|!
"Gm"fggg g2fg|g2gb gfd2|=effg fdBA|"D7"cBAF "Gm"G4:|!
